Production/EA4S_WordDrawings/SVG/singles_SVG/head.svg

<?xml version="1.0" encoding="UTF-8" standalone="no"?><!DOCTYPE svg PUBLIC "-//W3C//DTD SVG 1.1//EN" "http://www.w3.org/Graphics/SVG/1.1/DTD/svg11.dtd"><svg width="100%" height="100%" viewBox="0 0 446 512" version="1.1" xmlns="http://www.w3.org/2000/svg" xmlns:xlink="http://www.w3.org/1999/xlink" xml:space="preserve" style="fill-rule:evenodd;clip-rule:evenodd;stroke-linejoin:round;stroke-miterlimit:1.41421;"><g id="head"><path d="M68.023,90.693c4.549,-36.696 37.508,-55.926 69.84,-66.014c36.566,-11.407 76.688,-13.442 114.402,-7.282c29.304,4.787 59.564,12.764 83.769,30.724c9.065,6.727 14.754,16.891 18.429,27.337c1.418,4.029 2.857,8.131 3.652,12.336c0.367,1.948 0.766,4.891 0.607,6.408c-0.021,0.205 -0.869,2.771 -0.237,1.288c-0.893,2.094 1.817,-1.469 -0.041,-0.139c-6.416,4.59 -3.624,14.778 4.804,12.349c23.194,-6.686 10.116,-39.652 2.363,-53.583c-12.723,-22.863 -38.904,-34.2 -62.743,-41.824c-41.89,-13.396 -87.018,-14.869 -130.123,-7.289c-44.456,7.817 -111.837,31.472 -110.823,86.922c0.068,3.728 5.767,1.457 6.101,-1.233Z" style="fill:#010101;fill-rule:nonzero;"/><path d="M79.83,89.218c-9.622,-2.187 -18.122,5.109 -24.145,11.648c-6.902,7.496 -12.463,17.894 -15.488,27.551c-3.109,9.925 -3.774,20.796 -2.978,31.129c0.341,4.418 0.806,8.826 1.117,13.247c0.146,2.081 0.228,4.163 0.209,6.249c-0.009,0.994 -0.592,3.104 0.207,5.063c2.361,5.786 9.783,2.354 12.538,-1.017c4.386,-5.363 2.031,-14.803 1.257,-21.062c-0.981,-7.931 -1.873,-15.669 -1.194,-23.683c0.809,-9.563 4.05,-18.146 8.607,-26.504c3.875,-7.105 8.914,-13.706 17.294,-15.093c3.088,-0.508 7.598,-6.386 2.576,-7.528Z" style="fill:#010101;fill-rule:nonzero;"/><path d="M356.741,102.096c7.407,5.999 15.908,10.447 22.11,17.863c4.974,5.946 6.262,13.804 7.118,20.869c1.021,8.43 1.772,16.814 1.695,25.317c-0.032,3.627 -0.344,7.056 -0.993,10.646c-0.115,0.635 -1.36,4.833 -0.556,2.589c-0.246,0.685 -0.563,1.336 -0.891,1.984c1.31,-2.597 0.638,-1.048 0.102,-0.367c-2.92,3.705 -4.033,10.309 0.886,12.972c5.029,2.723 11.183,-0.78 14.315,-4.756c5.3,-6.726 5.548,-16.19 5.362,-24.36c-0.223,-9.799 -1.652,-19.473 -3.648,-29.052c-4.276,-20.519 -19.607,-36.857 -40.906,-39.727c-2.353,-0.316 -7.485,3.679 -4.594,6.022Z" style="fill:#010101;fill-rule:nonzero;"/><path d="M57.854,181.333c-0.839,1.867 -1.383,3.731 -1.869,5.718c2.446,-1.764 4.893,-3.528 7.339,-5.293c-9.471,-2.336 -17.182,-4.672 -26.765,-1.215c-9.245,3.336 -17.108,10.322 -22.871,18.133c-10.665,14.453 -13.97,33.504 -13.151,51.113c0.38,8.191 1.967,16.805 5.735,24.143c3.602,7.012 10.061,12.128 16.745,16.044c14.579,8.541 35.007,10.218 46.645,-4.052c4.757,-5.833 0.774,-14.206 -7.052,-11.597c-2.591,0.863 -4.427,2.179 -6.516,3.847c-4.259,3.402 -5.146,10.373 0.772,12.233c1.411,0.443 2.896,0.359 4.361,0.415c-1.002,-4.658 -2.005,-9.314 -3.008,-13.972c0.125,-0.109 -2.719,2.229 -1.31,1.269c-0.989,0.674 -1.127,0.674 -2.735,1.142c-1.558,0.454 -4.075,0.272 -5.941,0.038c-6.071,-0.763 -11.653,-3.448 -16.752,-6.716c-10.504,-6.729 -13.112,-17.976 -13.768,-29.784c-0.674,-12.131 0.744,-25.827 7.36,-36.327c3.27,-5.188 7.715,-10.488 13.491,-12.958c7.422,-3.174 15.123,0.378 22.709,-2.193c3.039,-1.03 5.583,-4.177 4.651,-7.473c-0.396,-1.404 -0.788,-2.591 -1.53,-3.847c-1.637,-2.776 -5.424,-1.147 -6.54,1.332Z" style="fill:#010101;fill-rule:nonzero;"/><path d="M380.135,192.18c3.299,5.022 11.162,2.336 15.773,1.112c7.142,-1.894 13.934,1.921 18.846,6.83c10.41,10.407 14.681,25.866 13.969,40.228c-0.639,12.896 -9.94,24.875 -19.724,32.474c-4.331,3.364 -10.456,5.937 -16.022,5.679c-3.888,-0.181 -7.598,-2.118 -11.496,-0.871c-5.029,1.607 -8.035,5.567 -8.288,10.724c-0.093,1.883 1.271,4.02 2.938,4.835c15.942,7.795 35.35,-2.297 47.031,-13.151c12.702,-11.802 21.444,-27.746 22.551,-45.135c1.01,-15.869 -6.08,-33.715 -17.652,-44.561c-6.279,-5.887 -13.725,-8.81 -22.277,-9.011c-3.934,-0.092 -8.287,0.974 -11.787,2.743c-1.735,0.876 -3.404,1.865 -5.12,2.778c-2.33,1.241 -4.614,1.396 -7.139,1.984c-1.392,0.325 -2.422,2.096 -1.603,3.342Z" style="fill:#010101;fill-rule:nonzero;"/><path d="M64.375,279.272c-3.892,7.078 -5.001,13.263 -5.021,21.376c-0.023,8.93 2.046,18.208 4.035,26.871c4.061,17.685 9.374,34.684 18.354,50.544c8.933,15.777 20.324,29.971 33.326,42.569c12.035,11.66 25.99,23.248 42.397,27.869c3.881,1.093 8.443,-1.929 10.649,-4.838c2.146,-2.832 3.954,-9.662 -0.777,-11.384c-3.717,-1.353 -6.353,-1.84 -10.253,-0.755c-4.279,1.189 -8.773,6.589 -6.978,11.211c1.045,2.692 2.768,4.157 5.445,5.101c3.291,-5.407 6.582,-10.814 9.872,-16.222c-14.14,-3.847 -26.608,-14.832 -37.059,-24.623c-12.367,-11.587 -23.344,-24.771 -32.235,-39.2c-8.584,-13.927 -13.753,-29.513 -18.562,-45.043c-2.349,-7.584 -4.575,-15.232 -5.951,-23.061c-0.633,-3.604 -1.271,-7.185 -1.582,-10.834c-0.277,-3.252 -1.407,-6.711 -1.346,-9.932c0.055,-2.769 -3.616,-0.919 -4.314,0.351Z" style="fill:#010101;fill-rule:nonzero;"/><path d="M374.91,292.709c-13.754,32.354 -21.826,67.828 -40.502,97.937c-14.606,23.549 -36.557,44.63 -65.749,45.198c2.364,1.907 4.728,3.813 7.092,5.72c-0.42,-2.068 -0.675,-3.783 -2.349,-5.209c-3.134,-2.671 -7.229,-1.773 -10.189,0.825c-1.908,1.675 -3.28,3.466 -4.391,5.756c-2.506,5.17 0.395,10.187 6.159,10.074c34.208,-0.667 62.258,-24.243 80.292,-51.604c10.075,-15.288 16.561,-31.854 22.438,-49.109c6.496,-19.07 11.653,-39.273 14.29,-59.256c0.642,-4.853 -5.7,-3.604 -7.091,-0.332Z" style="fill:#010101;fill-rule:nonzero;"/><path d="M162.235,441.746c1.591,2.652 1.945,6.389 2.578,9.354c1.146,5.361 1.759,10.83 2.574,16.25c1.568,10.42 2.309,21.125 4.515,31.424c1.977,9.229 18.611,0.3 17.235,-7.624c-0.349,-2.007 -0.836,-3.336 -1.961,-5.041c-3.683,-5.585 -12.318,0.811 -14.189,4.654c-0.611,1.256 -1.093,2.529 -1.313,3.915c5.685,-1.832 11.37,-3.664 17.056,-5.496c-2.484,-10.075 -5.061,-20.19 -7.943,-30.159c-1.521,-5.255 -3.349,-10.709 -5.844,-15.591c-1.64,-3.209 -3.392,-6.688 -7.161,-7.597c-2.553,-0.615 -7.238,3.093 -5.547,5.911Z" style="fill:#010101;fill-rule:nonzero;"/><path d="M267.115,437.54c-8.088,8.218 -8.188,20.669 -8.776,31.488c-0.312,5.74 -0.312,11.481 -0.566,17.223c-0.124,2.78 0.056,1.396 -0.437,4.161c-0.147,0.832 -0.933,2.858 0.203,-0.096c-0.375,0.784 -0.641,1.599 -0.796,2.442c-0.073,0.373 -0.337,7.163 -0.13,2.374c0.291,-1.356 0.581,-2.713 0.872,-4.069c0.884,-1.159 1.769,-2.317 2.653,-3.477c-2.636,2.65 -6.411,9.852 -0.938,12.124c7.282,3.023 14.363,-3.716 15.532,-10.708c0.863,-5.161 0.548,-10.589 0.405,-15.793c-0.173,-6.292 -0.767,-12.563 -0.908,-18.859c-0.063,-2.756 -0.2,-5.509 -0.246,-8.267c-0.02,-1.204 -0.01,-2.416 -0.055,-3.619c-0.024,-0.633 0.055,-1.66 -0.095,-1.242c1.67,-4.662 -3.384,-7.069 -6.718,-3.682Z" style="fill:#010101;fill-rule:nonzero;"/><path d="M151.392,73.31c-10.711,13.716 8.914,30.932 18.585,38.839c6.33,5.176 12.944,9.861 19.891,14.167c11.019,6.829 24.239,10.56 36.767,13.466c27.762,6.44 56.56,6.919 84.138,14.318c23.926,6.42 48.707,17.403 64.84,36.72c1.072,-5.004 2.144,-10.007 3.216,-15.01c-0.224,0.227 -0.447,0.456 -0.671,0.682c2.746,-1.23 5.492,-2.462 8.238,-3.693c-1.672,0.089 -3.268,0.47 -4.851,0.996c-4.642,1.543 -8.74,5.526 -9.784,10.401c-0.802,3.739 1.097,8.911 5.594,9.155c-2.401,-0.13 4.876,0.447 4.535,0.476c2.283,-0.186 4.485,-1.021 6.346,-2.333c4.292,-3.028 11.728,-11.55 5.893,-16.924c-8.727,-8.036 -18.271,-15.483 -28.597,-21.354c-10.917,-6.206 -22.818,-10.52 -34.725,-14.389c-26.283,-8.542 -53.883,-9.593 -81.067,-13.283c-13.461,-1.827 -26.828,-4.551 -39.563,-9.354c-7.694,-2.9 -14.612,-7.002 -21.727,-11.063c-7.71,-4.4 -15.448,-9.216 -22.241,-14.954c-4.045,-3.415 -10.391,-9.778 -8.908,-15.751c1,-4.032 -4.313,-3.156 -5.909,-1.112Z" style="fill:#010101;fill-rule:nonzero;"/><path d="M149.974,79.143c-5.247,11.677 -6.662,24.197 -14.794,34.623c-8.819,11.306 -21.903,16.304 -34.813,21.519c-6.898,2.786 -14.229,5.49 -20.291,9.87c-3.637,2.628 -6.824,5.879 -10.021,9.009c-3.603,3.526 -7.148,7.11 -10.824,10.563c-0.734,0.69 -1.485,1.364 -2.238,2.035c-0.432,0.387 -3.521,2.755 -1.035,1.035c-2.012,1.391 -10.721,7.725 -2.847,2.146c-4.336,3.072 -9.135,10.115 -3.036,14.17c9.085,6.042 21.783,-10.985 27.019,-16.542c3.572,-3.792 7.108,-7.671 11.058,-11.079c4.744,-4.094 13.574,-6.894 19.776,-9.666c14.84,-6.634 28.973,-14.866 37.685,-29.089c6.134,-10.014 15.464,-28.595 6.633,-39.339c-0.659,-0.801 -1.955,0.037 -2.272,0.745Z" style="fill:#010101;fill-rule:nonzero;"/><path d="M36.359,215.478c3.314,1.192 5.504,2.381 6.886,5.773c0.679,1.664 1.09,3.483 1.279,5.265c0.263,2.46 -0.977,3.775 -1.091,6.751c3.226,-3.428 6.451,-6.856 9.677,-10.284c-9.674,1.426 -19.964,8.711 -21.033,19.13c-0.468,4.565 0.82,9.143 4.464,12.129c1.481,1.215 2.949,2.188 4.622,3.099c0.89,0.537 0.907,0.51 0.054,-0.088c0.73,0.789 1.634,1.411 2.514,2.022c7.404,5.146 17.363,-6.305 15.289,-13.416c-1.176,-4.028 -5.512,-4.668 -8.743,-6.354c-0.469,-0.245 -1.035,-0.526 -0.925,-1.217c-0.223,1.393 0.78,0.084 2.502,-0.293c4.314,-0.944 9.323,-7.117 7.259,-11.663c-0.355,-0.782 -3.08,-3.945 -2.535,-2.877c-0.647,-1.27 -1.317,-2.488 -1.873,-3.804c-1.077,-2.554 -2.585,-4.999 -4.522,-6.982c-4.17,-4.268 -10.193,-3.587 -13.967,0.688c-0.445,0.503 -0.705,1.816 0.143,2.121Z" style="fill:#010101;fill-rule:nonzero;"/><path d="M395.359,204.181c-11.1,2.25 -18.507,12.11 -23.083,21.84c-2.137,4.544 0.264,9.304 5.531,9.048c2.69,-0.131 5.24,0.497 6.619,1.776c1.998,1.854 2.331,3.557 2.394,6.188c0.017,0.688 -0.079,1.071 -0.49,2.648c0.419,-1.607 -0.367,0.741 -0.449,0.914c-1.072,2.284 1.008,-1.317 -0.484,0.724c-1.522,2.081 1.406,-1.217 -0.522,0.518c-1.445,1.299 0.198,-0.066 0.688,-0.278c-1.767,0.765 -1.528,0.422 -3.982,0.803c-4.115,0.64 -7.747,3.042 -9.557,6.89c-1.601,3.402 -0.979,9.392 3.885,9.691c13.322,0.821 25.961,-10.473 27.365,-23.688c1.473,-13.861 -8.617,-22.687 -22.163,-21.603c2,1.116 3.999,2.231 5.999,3.348c-1.487,-5.311 5.975,-12.405 9.461,-15.705c1.445,-1.368 1.032,-3.569 -1.212,-3.114Z" style="fill:#010101;fill-rule:nonzero;"/><path d="M156,492.174c-6.191,15.115 38.943,18.044 46.769,18.647c11.411,0.881 22.851,1.293 34.27,0.305c19.023,-1.648 37.618,-6.479 56.594,-8.569c4.879,-0.538 9.474,-4.353 10.52,-9.232c0.979,-4.572 -2.252,-8.143 -6.865,-7.823c-6.009,0.417 -13.619,3.878 -15.014,10.388c-1.479,6.905 6.907,6.793 11.359,6.668c1.218,-5.686 2.437,-11.371 3.654,-17.056c-17.407,2.698 -34.374,7.586 -51.761,10.383c-11.445,1.842 -22.987,2.06 -34.543,1.675c-10.175,-0.338 -20.369,-0.729 -30.473,-2.048c-6.529,-0.853 -14.307,-1.656 -19.652,-5.544c-1.616,-1.176 -4.253,0.727 -4.858,2.206Z" style="fill:#010101;fill-rule:nonzero;"/></g></svg>

<?xml version="1.0" encoding="UTF-8"?>
<svg width="446px" height="512px" viewBox="0 0 446 512" version="1.1" xmlns="http://www.w3.org/2000/svg" xmlns:xlink="http://www.w3.org/1999/xlink">
    <!-- Generator: Sketch 41 (35326) - http://www.bohemiancoding.com/sketch -->
    <title>head</title>
    <desc>Created with Sketch.</desc>
    <defs></defs>
    <g id="Page-1" stroke="none" stroke-width="1" fill="none" fill-rule="evenodd">
        <g id="Layer_1" transform="translate(-2190.000000, -5463.000000)" fill="#010101">
            <g id="Layer_1_3_">
                <g id="head" transform="translate(2190.000000, 5463.000000)">
                    <path d="M68.023,90.693 C72.572,53.997 105.531,34.767 137.863,24.679 C174.429,13.272 214.551,11.237 252.265,17.397 C281.569,22.184 311.829,30.161 336.034,48.121 C345.099,54.848 350.788,65.012 354.463,75.458 C355.881,79.487 357.32,83.589 358.115,87.794 C358.482,89.742 358.881,92.685 358.722,94.202 C358.701,94.407 357.853,96.973 358.485,95.49 C357.592,97.584 360.302,94.021 358.444,95.351 C352.028,99.941 354.82,110.129 363.248,107.7 C386.442,101.014 373.364,68.048 365.611,54.117 C352.888,31.254 326.707,19.917 302.868,12.293 C260.978,-1.103 215.85,-2.576 172.745,5.004 C128.289,12.821 60.908,36.476 61.922,91.926 C61.99,95.654 67.689,93.383 68.023,90.693 L68.023,90.693 Z" id="Shape"></path>
                    <path d="M79.83,89.218 C70.208,87.031 61.708,94.327 55.685,100.866 C48.783,108.362 43.222,118.76 40.197,128.417 C37.088,138.342 36.423,149.213 37.219,159.546 C37.56,163.964 38.025,168.372 38.336,172.793 C38.482,174.874 38.564,176.956 38.545,179.042 C38.536,180.036 37.953,182.146 38.752,184.105 C41.113,189.891 48.535,186.459 51.29,183.088 C55.676,177.725 53.321,168.285 52.547,162.026 C51.566,154.095 50.674,146.357 51.353,138.343 C52.162,128.78 55.403,120.197 59.96,111.839 C63.835,104.734 68.874,98.133 77.254,96.746 C80.342,96.238 84.852,90.36 79.83,89.218 L79.83,89.218 Z" id="Shape"></path>
                    <path d="M356.741,102.096 C364.148,108.095 372.649,112.543 378.851,119.959 C383.825,125.905 385.113,133.763 385.969,140.828 C386.99,149.258 387.741,157.642 387.664,166.145 C387.632,169.772 387.32,173.201 386.671,176.791 C386.556,177.426 385.311,181.624 386.115,179.38 C385.869,180.065 385.552,180.716 385.224,181.364 C386.534,178.767 385.862,180.316 385.326,180.997 C382.406,184.702 381.293,191.306 386.212,193.969 C391.241,196.692 397.395,193.189 400.527,189.213 C405.827,182.487 406.075,173.023 405.889,164.853 C405.666,155.054 404.237,145.38 402.241,135.801 C397.965,115.282 382.634,98.944 361.335,96.074 C358.982,95.758 353.85,99.753 356.741,102.096 L356.741,102.096 Z" id="Shape"></path>
                    <path d="M57.854,181.333 C57.015,183.2 56.471,185.064 55.985,187.051 C58.431,185.287 60.878,183.523 63.324,181.758 C53.853,179.422 46.142,177.086 36.559,180.543 C27.314,183.879 19.451,190.865 13.688,198.676 C3.023,213.129 -0.282,232.18 0.537,249.789 C0.917,257.98 2.504,266.594 6.272,273.932 C9.874,280.944 16.333,286.06 23.017,289.976 C37.596,298.517 58.024,300.194 69.662,285.924 C74.419,280.091 70.436,271.718 62.61,274.327 C60.019,275.19 58.183,276.506 56.094,278.174 C51.835,281.576 50.948,288.547 56.866,290.407 C58.277,290.85 59.762,290.766 61.227,290.822 C60.225,286.164 59.222,281.508 58.219,276.85 C58.344,276.741 55.5,279.079 56.909,278.119 C55.92,278.793 55.782,278.793 54.174,279.261 C52.616,279.715 50.099,279.533 48.233,279.299 C42.162,278.536 36.58,275.851 31.481,272.583 C20.977,265.854 18.369,254.607 17.713,242.799 C17.039,230.668 18.457,216.972 25.073,206.472 C28.343,201.284 32.788,195.984 38.564,193.514 C45.986,190.34 53.687,193.892 61.273,191.321 C64.312,190.291 66.856,187.144 65.924,183.848 C65.528,182.444 65.136,181.257 64.394,180.001 C62.757,177.225 58.97,178.854 57.854,181.333 L57.854,181.333 Z" id="Shape"></path>
                    <path d="M380.135,192.18 C383.434,197.202 391.297,194.516 395.908,193.292 C403.05,191.398 409.842,195.213 414.754,200.122 C425.164,210.529 429.435,225.988 428.723,240.35 C428.084,253.246 418.783,265.225 408.999,272.824 C404.668,276.188 398.543,278.761 392.977,278.503 C389.089,278.322 385.379,276.385 381.481,277.632 C376.452,279.239 373.446,283.199 373.193,288.356 C373.1,290.239 374.464,292.376 376.131,293.191 C392.073,300.986 411.481,290.894 423.162,280.04 C435.864,268.238 444.606,252.294 445.713,234.905 C446.723,219.036 439.633,201.19 428.061,190.344 C421.782,184.457 414.336,181.534 405.784,181.333 C401.85,181.241 397.497,182.307 393.997,184.076 C392.262,184.952 390.593,185.941 388.877,186.854 C386.547,188.095 384.263,188.25 381.738,188.838 C380.346,189.163 379.316,190.934 380.135,192.18 L380.135,192.18 Z" id="Shape"></path>
                    <path d="M64.375,279.272 C60.483,286.35 59.374,292.535 59.354,300.648 C59.331,309.578 61.4,318.856 63.389,327.519 C67.45,345.204 72.763,362.203 81.743,378.063 C90.676,393.84 102.067,408.034 115.069,420.632 C127.104,432.292 141.059,443.88 157.466,448.501 C161.347,449.594 165.909,446.572 168.115,443.663 C170.261,440.831 172.069,434.001 167.338,432.279 C163.621,430.926 160.985,430.439 157.085,431.524 C152.806,432.713 148.312,438.113 150.107,442.735 C151.152,445.427 152.875,446.892 155.552,447.836 C158.843,442.429 162.134,437.022 165.424,431.614 C151.284,427.767 138.816,416.782 128.365,406.991 C115.998,395.404 105.021,382.22 96.13,367.791 C87.546,353.864 82.377,338.278 77.568,322.748 C75.219,315.164 72.993,307.516 71.617,299.687 C70.984,296.083 70.346,292.502 70.035,288.853 C69.758,285.601 68.628,282.142 68.689,278.921 C68.744,276.152 65.073,278.002 64.375,279.272 L64.375,279.272 Z" id="Shape"></path>
                    <path d="M374.91,292.709 C361.156,325.063 353.084,360.537 334.408,390.646 C319.802,414.195 297.851,435.276 268.659,435.844 C271.023,437.751 273.387,439.657 275.751,441.564 C275.331,439.496 275.076,437.781 273.402,436.355 C270.268,433.684 266.173,434.582 263.213,437.18 C261.305,438.855 259.933,440.646 258.822,442.936 C256.316,448.106 259.217,453.123 264.981,453.01 C299.189,452.343 327.239,428.767 345.273,401.406 C355.348,386.118 361.834,369.552 367.711,352.297 C374.207,333.227 379.364,313.024 382.001,293.041 C382.643,288.188 376.301,289.437 374.91,292.709 L374.91,292.709 Z" id="Shape"></path>
                    <path d="M162.235,441.746 C163.826,444.398 164.18,448.135 164.813,451.1 C165.959,456.461 166.572,461.93 167.387,467.35 C168.955,477.77 169.696,488.475 171.902,498.774 C173.879,508.003 190.513,499.074 189.137,491.15 C188.788,489.143 188.301,487.814 187.176,486.109 C183.493,480.524 174.858,486.92 172.987,490.763 C172.376,492.019 171.894,493.292 171.674,494.678 C177.359,492.846 183.044,491.014 188.73,489.182 C186.246,479.107 183.669,468.992 180.787,459.023 C179.266,453.768 177.438,448.314 174.943,443.432 C173.303,440.223 171.551,436.744 167.782,435.835 C165.229,435.22 160.544,438.928 162.235,441.746 L162.235,441.746 Z" id="Shape"></path>
                    <path d="M267.115,437.54 C259.027,445.758 258.927,458.209 258.339,469.028 C258.027,474.768 258.027,480.509 257.773,486.251 C257.649,489.031 257.829,487.647 257.336,490.412 C257.189,491.244 256.403,493.27 257.539,490.316 C257.164,491.1 256.898,491.915 256.743,492.758 C256.67,493.131 256.406,499.921 256.613,495.132 C256.904,493.776 257.194,492.419 257.485,491.063 C258.369,489.904 259.254,488.746 260.138,487.586 C257.502,490.236 253.727,497.438 259.2,499.71 C266.482,502.733 273.563,495.994 274.732,489.002 C275.595,483.841 275.28,478.413 275.137,473.209 C274.964,466.917 274.37,460.646 274.229,454.35 C274.166,451.594 274.029,448.841 273.983,446.083 C273.963,444.879 273.973,443.667 273.928,442.464 C273.904,441.831 273.983,440.804 273.833,441.222 C275.503,436.56 270.449,434.153 267.115,437.54 L267.115,437.54 Z" id="Shape"></path>
                    <path d="M151.392,73.31 C140.681,87.026 160.306,104.242 169.977,112.149 C176.307,117.325 182.921,122.01 189.868,126.316 C200.887,133.145 214.107,136.876 226.635,139.782 C254.397,146.222 283.195,146.701 310.773,154.1 C334.699,160.52 359.48,171.503 375.613,190.82 C376.685,185.816 377.757,180.813 378.829,175.81 C378.605,176.037 378.382,176.266 378.158,176.492 C380.904,175.262 383.65,174.03 386.396,172.799 C384.724,172.888 383.128,173.269 381.545,173.795 C376.903,175.338 372.805,179.321 371.761,184.196 C370.959,187.935 372.858,193.107 377.355,193.351 C374.954,193.221 382.231,193.798 381.89,193.827 C384.173,193.641 386.375,192.806 388.236,191.494 C392.528,188.466 399.964,179.944 394.129,174.57 C385.402,166.534 375.858,159.087 365.532,153.216 C354.615,147.01 342.714,142.696 330.807,138.827 C304.524,130.285 276.924,129.234 249.74,125.544 C236.279,123.717 222.912,120.993 210.177,116.19 C202.483,113.29 195.565,109.188 188.45,105.127 C180.74,100.727 173.002,95.911 166.209,90.173 C162.164,86.758 155.818,80.395 157.301,74.422 C158.301,70.39 152.988,71.266 151.392,73.31 L151.392,73.31 Z" id="Shape"></path>
                    <path d="M149.974,79.143 C144.727,90.82 143.312,103.34 135.18,113.766 C126.361,125.072 113.277,130.07 100.367,135.285 C93.469,138.071 86.138,140.775 80.076,145.155 C76.439,147.783 73.252,151.034 70.055,154.164 C66.452,157.69 62.907,161.274 59.231,164.727 C58.497,165.417 57.746,166.091 56.993,166.762 C56.561,167.149 53.472,169.517 55.958,167.797 C53.946,169.188 45.237,175.522 53.111,169.943 C48.775,173.015 43.976,180.058 50.075,184.113 C59.16,190.155 71.858,173.128 77.094,167.571 C80.666,163.779 84.202,159.9 88.152,156.492 C92.896,152.398 101.726,149.598 107.928,146.826 C122.768,140.192 136.901,131.96 145.613,117.737 C151.747,107.723 161.077,89.142 152.246,78.398 C151.587,77.597 150.291,78.435 149.974,79.143 L149.974,79.143 Z" id="Shape"></path>
                    <path d="M36.359,215.478 C39.673,216.67 41.863,217.859 43.245,221.251 C43.924,222.915 44.335,224.734 44.524,226.516 C44.787,228.976 43.547,230.291 43.433,233.267 C46.659,229.839 49.884,226.411 53.11,222.983 C43.436,224.409 33.146,231.694 32.077,242.113 C31.609,246.678 32.897,251.256 36.541,254.242 C38.022,255.457 39.49,256.43 41.163,257.341 C42.053,257.878 42.07,257.851 41.217,257.253 C41.947,258.042 42.851,258.664 43.731,259.275 C51.135,264.421 61.094,252.97 59.02,245.859 C57.844,241.831 53.508,241.191 50.277,239.505 C49.808,239.26 49.242,238.979 49.352,238.288 C49.129,239.681 50.132,238.372 51.854,237.995 C56.168,237.051 61.177,230.878 59.113,226.332 C58.758,225.55 56.033,222.387 56.578,223.455 C55.931,222.185 55.261,220.967 54.705,219.651 C53.628,217.097 52.12,214.652 50.183,212.669 C46.013,208.401 39.99,209.082 36.216,213.357 C35.771,213.86 35.511,215.173 36.359,215.478 L36.359,215.478 Z" id="Shape"></path>
                    <path d="M395.359,204.181 C384.259,206.431 376.852,216.291 372.276,226.021 C370.139,230.565 372.54,235.325 377.807,235.069 C380.497,234.938 383.047,235.566 384.426,236.845 C386.424,238.699 386.757,240.402 386.82,243.033 C386.837,243.721 386.741,244.104 386.33,245.681 C386.749,244.074 385.963,246.422 385.881,246.595 C384.809,248.879 386.889,245.278 385.397,247.319 C383.875,249.4 386.803,246.102 384.875,247.837 C383.43,249.136 385.073,247.771 385.563,247.559 C383.796,248.324 384.035,247.981 381.581,248.362 C377.466,249.002 373.834,251.404 372.024,255.252 C370.423,258.654 371.045,264.644 375.909,264.943 C389.231,265.764 401.87,254.47 403.274,241.255 C404.747,227.394 394.657,218.568 381.111,219.652 C383.111,220.768 385.11,221.883 387.11,223 C385.623,217.689 393.085,210.595 396.571,207.295 C398.016,205.927 397.603,203.726 395.359,204.181 L395.359,204.181 Z" id="Shape"></path>
                    <path d="M156,492.174 C149.809,507.289 194.943,510.218 202.769,510.821 C214.18,511.702 225.62,512.114 237.039,511.126 C256.062,509.478 274.657,504.647 293.633,502.557 C298.512,502.019 303.107,498.204 304.153,493.325 C305.132,488.753 301.901,485.182 297.288,485.502 C291.279,485.919 283.669,489.38 282.274,495.89 C280.795,502.795 289.181,502.683 293.633,502.558 C294.851,496.872 296.07,491.187 297.287,485.502 C279.88,488.2 262.913,493.088 245.526,495.885 C234.081,497.727 222.539,497.945 210.983,497.56 C200.808,497.222 190.614,496.831 180.51,495.512 C173.981,494.659 166.203,493.856 160.858,489.968 C159.242,488.792 156.605,490.695 156,492.174 L156,492.174 Z" id="Shape"></path>
                </g>
            </g>
        </g>
    </g>
</svg>
